X: 15197
T: Gillie Callum
R: strathspey
M: 4/4
K: Amajor
AA/A/c>A d2 B>=G|A<Ac>A e2 cA|e2 cA d2 B=G|AA/A/ce d<B e2:|
A<Ace =g2 dB|A<Ace a>ga>e|=g>ag>e d<gB<g|A<Ace d<B e2|
A<Ace =g2 dB|A<Ace a>ga>e|=g>ag>e d<gB<G|A<Ace d<B e2|

